icons/trace-16.svg

<svg id="icons" xmlns="http://www.w3.org/2000/svg" viewBox="0 0 16 16"><defs><style>.cls-1{fill:none;}</style></defs><path d="M16,3V0H13V1H9V0H6V2.79071L4.68433,5H5.84711L7.0379,3H9V2h4V3h1v9H13v1H11v1h2v1h3V12H15V3ZM8,2H7V1H8Zm7,12H14V13h1ZM14,1h1V2H14ZM7,13v1H5V13Zm0,1H8v2H7Zm1-1h2v1H8Zm0,0H7V11H8ZM5.25177,6,4.061,8H2.89783l1.191-2ZM2.30237,9H3.46564L2.2749,11H1.11133Zm-1.2182,4H3v1H0V12.86621L.51581,12H1.6795Z"/><rect class="cls-1" width="16" height="16"/></svg>

<svg xmlns="http://www.w3.org/2000/svg" viewBox="0 0 16 16"><path d="M16 3V0h-3v1H9V0H6v2.79L4.684 5h1.163l1.19-2H9V2h4v1h1v9h-1v1h-2v1h2v1h3v-3h-1V3zM8 2H7V1h1zm7 12h-1v-1h1zM14 1h1v1h-1zM7 13v1H5v-1zm0 1h1v2H7zm1-1h2v1H8zm0 0H7v-2h1zM5.252 6L4.06 8H2.898l1.19-2zm-2.95 3h1.164l-1.191 2H1.11zm-1.218 4H3v1H0v-1.134L.516 12h1.163z"/><path fill="none" d="M0 0h16v16H0z"/></svg>
